X: 23
T: The night cap
C: anon.
O: Ireland
B: Francis O'Neill: "The Dance Music of Ireland" (1907) no. 23
R: Double jig
Z: Transcribed by Frank Nordberg - http://www.musicaviva.com
F: http://www.musicaviva.com/abc/tunes/ireland/oneill-1001/oneill-1001-002
3.abc
m: Mn2 = (3n/o/n/ o/4n/4-n/
M: 6/8
L: 1/8
Q: 3/8=128
K: G
G/A/|:Bcd d2c|Bcd dBG|cee e2d|cee ecA|Bdd d2c|Bdd dBG|\
GBd e2d|gBG MA2G:|
BGG dGG|BGB dcB|cAA eAA|cAe edc|BGG dGG|BGB dBG|GBd e2d|gBG MA2G:|
W:
W:
W: From Musica Viva - http://www.musicaviva.com
W: the Internet center for free sheet music downloads.


